X:461
T: Nchtlicher Besuch (173a), S. 380
N: T0349
O: Luxemburg
S: Singendes Volk, Esch-Alzette, 1937 posth.]
N: Straen, fff Witry, 10.1.1933
R: Tage-. Wchter-, Fenstergang-, Stndchenlieder, Liebeslied]
M: 3/4
L: 1/8
K: F
C | FAc3c | AGF3
c | cff3B | dcc2z
c | fed3f | fdc3
c | dAc3A | BGA3
A | AAc2AF | GFz3
c | fed3f | fdc3
c | dAc3A | BGA3
A | AAc2AF | GFz3

